X: 14895
T: Gatehouse Maid, The
R: reel
M: 4/4
K: Gmajor
A2(3Bcd edBA|G3A GEDB|A2(3Bcd ed (3Bcd|egdB BAAG|
A2(3Bcd edBA|G3A GEDB|A2(3Bcd edBd|egdB BA A2||
a2ea agef|g2dg g2dg|a2ea agab|gedB BA A2|
a3 b agef|g3a gedB|dega bgaf|gedB BAAG||

